X: 1
T: MacDonald's Reel
S: printed copy of unknown origin, from Paul Lizotte
R: reel
Z: 2015 John Chambers <jc:trillian.mit.edu>
M: C|
L: 1/8
K: Amix
fed |\
"A"c2~B2 Aced | cAce "D7"faef | "G"g2fa gfef | gedB "Em"GABd |
"A"c2~B2 Aced | cAce "D7"faef | "G"gedB "/f#"GABd | "Em"cAGB "A"A :|
|: zB2 |\
"A"AAaA AgAA | "D"fAAe "A"AAef | "G"g2fa gfef | "Em"gedB GABG |
"A"AAaA AgAA | "D"fAAe "A"AAef | "G"gedB "/f#"GABd | "Em"cAGB "A"A :|
